X:329
T:Sean Sa Ceo
Z: id:dc-reel-307
M:C
L:1/8
K:A Mixolydian
Bd|e2df eABd|efeB d2BA|Beed efge|Bded cA:|!
Bd|cAA2 BGBd|cAA2 dGBd|cAA2 EAA2|cAed cA:|!
ce|a2c'a bac'a|a2c'a e3f|g2bg agbg|g2bg efge|!
a2c'a bac'a|a2c'a e3f|gfga gedf|gfge dG|]!

